docs/themes/v2/source/images/new/foot5.svg

<svg fill="none" height="18" viewBox="0 0 18 18" width="18" xmlns="http://www.w3.org/2000/svg"><path clip-rule="evenodd" d="m1.33038 0c-.734561 0-1.33038.577668-1.33038 1.28942v15.42158c0 .7118.595819 1.289 1.33038 1.289h15.33922c.7348 0 1.3304-.5772 1.3304-1.2892v-15.42138c0-.711752-.5956-1.28942-1.3304-1.28942zm4.30519 4.42612c0 .77998-.59012 1.40415-1.53801 1.40415h-.00024-.01758c-.9125 0-1.50238-.62417-1.50238-1.40415 0-.79769.6077-1.40439 1.53825-1.40439.92984 0 1.50214.6067 1.51996 1.40439zm-.17912 2.51358v8.1279h-2.71872v-8.1279zm1.50476 8.128h2.71849v-4.5385c0-.2426.01781-.4858.08956-.65906.19647-.4856.64384-.9882 1.39504-.9882.9835 0 1.3771.74528 1.3771 1.83806v4.3477h2.7185v-4.6603c0-2.49642-1.3411-3.65813-3.1297-3.65813-1.4422 0-2.0889.78763-2.45027 1.34138v-1.15064h-2.71848c.03528.76002-.00001 8.07979-.00024 8.12769z" fill="#000" fill-opacity=".4" fill-rule="evenodd"/></svg>

<svg width="18" height="18" viewBox="0 0 18 18" fill="none" xmlns="http://www.w3.org/2000/svg">
<path fill-rule="evenodd" clip-rule="evenodd" d="M1.33038 0C0.595819 0 0 0.577668 0 1.28942V16.711C0 17.4228 0.595819 18 1.33038 18H16.6696C17.4044 18 18 17.4228 18 16.7108V1.28942C18 0.577668 17.4044 0 16.6696 0H1.33038ZM5.63557 4.42612C5.63557 5.2061 5.04545 5.83027 4.09756 5.83027H4.09732H4.07974C3.16724 5.83027 2.57736 5.2061 2.57736 4.42612C2.57736 3.62843 3.18506 3.02173 4.11561 3.02173C5.04545 3.02173 5.61775 3.62843 5.63557 4.42612ZM5.45645 6.9397V15.0676H2.73773V6.9397H5.45645ZM6.96121 15.0677H9.6797V10.5292C9.6797 10.2866 9.69751 10.0434 9.76926 9.87014C9.96573 9.38454 10.4131 8.88194 11.1643 8.88194C12.1478 8.88194 12.5414 9.62722 12.5414 10.72V15.0677H15.2599V10.4074C15.2599 7.91098 13.9188 6.74927 12.1302 6.74927C10.688 6.74927 10.0413 7.5369 9.67993 8.09065V6.94001H6.96145C6.99673 7.70003 6.96144 15.0198 6.96121 15.0677Z" fill="black" fill-opacity="0.4"/>
</svg>
